packages/IcoMoon/src/StarEmptyIcon/index.svg

<svg version="1.1" xmlns="http://www.w3.org/2000/svg" width="16" height="16" viewBox="0 0 16 16">
<path d="M16 6.204l-5.528-0.803-2.472-5.009-2.472 5.009-5.528 0.803 4 3.899-0.944 5.505 4.944-2.599 4.944 2.599-0.944-5.505 4-3.899zM8 11.773l-3.492 1.836 0.667-3.888-2.825-2.753 3.904-0.567 1.746-3.537 1.746 3.537 3.904 0.567-2.825 2.753 0.667 3.888-3.492-1.836z"></path>
</svg>

<svg xmlns="http://www.w3.org/2000/svg" viewBox="0 0 16 16">
  <path d="M16 6.204l-5.528-.803L8 .392 5.528 5.401 0 6.204l4 3.899-.944 5.505L8 13.009l4.944 2.599L12 10.103l4-3.899zm-8 5.569l-3.492 1.836.667-3.888L2.35 6.968l3.904-.567L8 2.864l1.746 3.537 3.904.567-2.825 2.753.667 3.888L8 11.773z"/>
</svg>
